icons/buck.svg

<?xml version="1.0" encoding="UTF-8" standalone="no"?>
<svg width="256px" height="223px" viewBox="0 0 256 223" version="1.1" xmlns="http://www.w3.org/2000/svg" xmlns:xlink="http://www.w3.org/1999/xlink" preserveAspectRatio="xMidYMid">
	<g fill="#4A69A5">
		<path d="M72.4263785,0 L53.8655403,0 L53.8655403,52.5075627 L76.5003113,75.1423337 L49.3407589,75.1423337 L19.6906755,45.4922503 L19.6906755,0 L0,0 L0,53.8655403 L40.2857641,94.1540204 L94.604869,94.1540204 L114.07012,113.616556 L62.0134061,113.616556 L105.922254,158.883382 L41.6437417,222.70833 L66.994468,222.70833 L131.270265,157.978969 L106.826668,133.535371 L236.741671,133.535371 L236.741671,141.683237 L180.611024,175.179113 L133.535371,222.70833 L160.241359,222.70833 L192.379258,190.116867 L255.753357,152.093494 L255.753357,113.616556 L196.002342,113.616556 L175.632678,93.2468913 L198.718297,70.1612718 L198.718297,18.5581222 L179.47847,18.5581222 L179.47847,61.5625575 L160.694924,80.1206797 L143.945628,62.5810407 L143.945628,18.5581222 L125.838354,18.5581222 L125.838354,71.0684008 L168.174665,113.616556 L142.343214,113.616556 L72.4263785,44.359697 L72.4263785,0"></path>
		<path d="M170.651616,145.303605 L145.303605,145.303605 L157.525404,158.429817 L170.651616,145.303605"></path>
	</g>
</svg>

<svg xmlns="http://www.w3.org/2000/svg" viewBox="0 0 255.753 222.708">
  <g fill="#4a69a5">
    <path d="M72.426 0h-18.56v52.508L76.5 75.142H49.34l-29.65-29.65V0H0v53.866l40.286 40.288h54.319l19.465 19.463H62.013l43.91 45.266-64.28 63.825h25.351l64.276-64.729-24.443-24.444h129.915v8.148L180.61 175.18l-47.076 47.53h26.706l32.138-32.592 63.374-38.024v-38.476h-59.75l-20.37-20.37 23.085-23.086V18.558h-19.24v43.005L160.695 80.12l-16.75-17.54V18.558h-18.107v52.51l42.337 42.549h-25.832L72.426 44.36V0"/>
    <path d="M170.652 145.304h-25.348l12.221 13.126 13.127-13.126"/>
  </g>
</svg>
